X:70
T:Flatbush
M:3/4
L:1/8
S:Waltz
R:Sax
K:Gm
"Gm"d3 g dc|(3BcB G2 G2|d3 g dB|"Cm"c3 e dc|"Gm"GA Bc dd|"Cm"cG c2 c2|"G
m" B3 c "Ab"  _AB|"Gm"GG Bd gb|
"Gm"d3 g dc|(3BcB G2 G2|d3 g dB|"Cm"c3 f dc|"Bb"Bc de fd|"Cm"cG c2 c2|"G
m"B3 c "Ab"_AB|"Gm"GG Bd gb|
"Gm"b4 ag|"D"aD ^FA d^f|"Eb"g2 f3 e|"Bb"d6|"Cm"e2 d2 c2|"Gm"d2 g2 a2|b3
a bc'|"D"a6|
"Gm"b4 ag|"D"aD ^FA d^f|"Eb"g2 f3 e|"Bb"d6|"Cm"e2 d2 c2|"Gm"d2 G2 c2|"Gm
"B3 c "Ab"_AB|"Gm" G4 z2||
